icons/Media/image-line.svg

<svg viewBox="0 0 24 24" xmlns="http://www.w3.org/2000/svg"><path d="M2.9918 21C2.44405 21 2 20.5551 2 20.0066V3.9934C2 3.44476 2.45531 3 2.9918 3H21.0082C21.556 3 22 3.44495 22 3.9934V20.0066C22 20.5552 21.5447 21 21.0082 21H2.9918ZM20 15V5H4V19L14 9L20 15ZM20 17.8284L14 11.8284L6.82843 19H20V17.8284ZM8 11C6.89543 11 6 10.1046 6 9C6 7.89543 6.89543 7 8 7C9.10457 7 10 7.89543 10 9C10 10.1046 9.10457 11 8 11Z"/></svg>

<svg xmlns="http://www.w3.org/2000/svg" viewBox="0 0 24 24">
    <g>
        <path fill="none" d="M0 0h24v24H0z"/>
        <path d="M4.828 21l-.02.02-.021-.02H2.992A.993.993 0 0 1 2 20.007V3.993A1 1 0 0 1 2.992 3h18.016c.548 0 .992.445.992.993v16.014a1 1 0 0 1-.992.993H4.828zM20 15V5H4v14L14 9l6 6zm0 2.828l-6-6L6.828 19H20v-1.172zM8 11a2 2 0 1 1 0-4 2 2 0 0 1 0 4z"/>
    </g>
</svg>
